COLOR/action 16/16/align-vertical-bottom-out.svg

<svg viewBox="0 0 24 24" xmlns="http://www.w3.org/2000/svg"><g transform="matrix(-1 0 0 1 24 0)"><path d="m4 16v1 3h6v-1-3h-1z" fill="#1a7fd4"/><path d="m4 13v1h16v-1z" fill="#e95420"/><g fill="#c43ac4" transform="matrix(-1 0 0 -1 24 14)"><path d="m4 3v1 6h6v-1-6h-1z"/><path d="m14 4v6h5 1v-1-4-1h-1-4z"/><g transform="matrix(1 0 0 -1 0 14)"><path d="m14 9.5v.5h1 4 1v-.5h-1-4zm-10 1v.5h5 1v-.5h-1zm0 3v.5h16v-.5zm10 6v.5h6v-.5z" fill="#372828" opacity=".2"/><path d="m4 4v.5h6v-.5zm10 0v.5h5 1v-.5h-1zm-10 9v.5h16v-.5zm10 3v.5h1 5v-.5h-5z" fill="#fff" opacity=".3"/></g></g></g></svg>

<?xml version="1.0" encoding="UTF-8" standalone="no"?>
<svg
   xmlns:dc="http://purl.org/dc/elements/1.1/"
   xmlns:cc="http://creativecommons.org/ns#"
   xmlns:rdf="http://www.w3.org/1999/02/22-rdf-syntax-ns#"
   xmlns:svg="http://www.w3.org/2000/svg"
   xmlns="http://www.w3.org/2000/svg"
   xmlns:sodipodi="http://sodipodi.sourceforge.net/DTD/sodipodi-0.dtd"
   xmlns:inkscape="http://www.inkscape.org/namespaces/inkscape"
   viewBox="0 0 24 24"
   version="1.1"
   id="svg14"
   sodipodi:docname="align-vertical-bottom-out.svg"
   inkscape:version="0.92.4 (5da689c313, 2019-01-14)">
  <metadata
     id="metadata20">
    <rdf:RDF>
      <cc:Work
         rdf:about="">
        <dc:format>image/svg+xml</dc:format>
        <dc:type
           rdf:resource="http://purl.org/dc/dcmitype/StillImage" />
      </cc:Work>
    </rdf:RDF>
  </metadata>
  <defs
     id="defs18" />
  <sodipodi:namedview
     pagecolor="#ffffff"
     bordercolor="#666666"
     borderopacity="1"
     objecttolerance="10"
     gridtolerance="10"
     guidetolerance="10"
     inkscape:pageopacity="0"
     inkscape:pageshadow="2"
     inkscape:window-width="1920"
     inkscape:window-height="1016"
     id="namedview16"
     showgrid="false"
     inkscape:zoom="52.4375"
     inkscape:cx="12"
     inkscape:cy="10.474374"
     inkscape:window-x="0"
     inkscape:window-y="27"
     inkscape:window-maximized="1"
     inkscape:current-layer="g10" />
  <g
     transform="matrix(-1 0 0 1 24 0)"
     id="g12">
    <path
       d="m4 16v1 3h6v-1-3h-1z"
       fill="#1a7fd4"
       id="path2" />
    <path
       d="m4 13v1h16v-1z"
       fill="#e95420"
       id="path4" />
    <g
       fill="#c43ac4"
       transform="matrix(-1 0 0 -1 24 14)"
       id="g10">
      <path
         d="m4 3v1 6h6v-1-6h-1z"
         id="path6" />
      <path
         d="m14 4v6h5 1v-1-4-1h-1-4z"
         id="path8" />
      <path
         d="M 14 9.5 L 14 10 L 15 10 L 19 10 L 20 10 L 20 9.5 L 19 9.5 L 15 9.5 L 14 9.5 z M 4 10.5 L 4 11 L 9 11 L 10 11 L 10 10.5 L 9 10.5 L 4 10.5 z M 4 13.5 L 4 14 L 20 14 L 20 13.5 L 4 13.5 z M 14 19.5 L 14 20 L 20 20 L 20 19.5 L 14 19.5 z "
         transform="matrix(1,0,0,-1,0,14)"
         id="path831"
         style="fill:#372828;fill-opacity:1;opacity:0.2" />
      <path
         d="M 4 4 L 4 4.5 L 10 4.5 L 10 4 L 4 4 z M 14 4 L 14 4.5 L 19 4.5 L 20 4.5 L 20 4 L 19 4 L 14 4 z M 4 13 L 4 13.5 L 20 13.5 L 20 13 L 4 13 z M 14 16 L 14 16.5 L 15 16.5 L 20 16.5 L 20 16 L 15 16 L 14 16 z "
         transform="matrix(1,0,0,-1,0,14)"
         id="path838"
         style="fill:#ffffff;fill-opacity:1;opacity:0.3" />
    </g>
  </g>
</svg>
